X:158
T:The Rover Through the Bog
B:Terry "Cuz" Teahan "Sliabh Luachra on Parade" 1980
Z:Patrick Cavanagh
M:4/4
L:1/8
R:Hornpipe
K:G
D2 | GABG ABcd | efge aged | B/c/d BG A/B/cAF | GABG AGFD | 
GABG ABcd | efge aged | B/c/d BG A/B/cAF | GBAB G2 :| 
|: e/f/g | aged B/c/d ef | geaf g2 e/f/g | aged BAGB | EGDE G2 D2 | 
GABG ABcd | efge aged | B/c/d BG A/B/cAF | GBAB G2 :|| 

